packages/elvis-assets-icons/icons/svg/src/cookie.svg

<svg width="24" height="24" viewBox="0 0 24 24" fill="none" xmlns="http://www.w3.org/2000/svg">
<g clip-path="url(#clip0)">
<path d="M11.977 23.9769C5.52599 23.9769 0.266986 18.9249 0.00598642 12.4749C-0.124014 9.27589 0.999986 6.21689 3.16999 3.86289C5.34099 1.50889 8.29799 0.140888 11.497 0.0108877C11.502 0.0108877 11.53 0.0098877 11.535 0.0098877C11.777 0.0098877 12.005 0.131888 12.145 0.334888C12.292 0.548888 12.318 0.817888 12.216 1.05589C12.054 1.43289 11.971 1.83189 11.972 2.24289C11.973 3.04289 12.285 3.79589 12.852 4.36089C13.418 4.92589 14.17 5.23689 14.969 5.23689C15.617 5.23489 16.255 5.01689 16.767 4.62289C16.898 4.52289 17.06 4.46789 17.224 4.46789C17.338 4.46789 17.453 4.49489 17.555 4.54489C17.813 4.67189 17.974 4.92989 17.974 5.21789V5.24289C17.975 6.89389 19.319 8.23689 20.97 8.23689C21.443 8.23489 21.916 8.11689 22.335 7.89489C22.443 7.83789 22.564 7.80889 22.685 7.80889C22.782 7.80889 22.877 7.82789 22.968 7.86389C23.176 7.94989 23.333 8.11989 23.4 8.33089C23.729 9.35689 23.918 10.4249 23.962 11.5029C24.092 14.7029 22.968 17.7609 20.797 20.1149C18.627 22.4689 15.669 23.8369 12.47 23.9669C12.306 23.9739 12.141 23.9769 11.977 23.9769ZM10.518 1.60289C8.12599 1.93789 5.92399 3.08889 4.27299 4.87989C2.37399 6.93989 1.39099 9.61589 1.50399 12.4149C1.73299 18.0579 6.33299 22.4769 11.976 22.4769C12.12 22.4769 12.264 22.4739 12.409 22.4679C15.208 22.3539 17.795 21.1579 19.695 19.0979C21.594 17.0379 22.577 14.3619 22.463 11.5629C22.436 10.8899 22.343 10.2189 22.188 9.56389C21.794 9.67689 21.388 9.73589 20.977 9.73789H20.972C18.94 9.73789 17.154 8.33889 16.631 6.41289C16.105 6.62489 15.541 6.73589 14.976 6.73789C13.771 6.73789 12.643 6.27089 11.793 5.42389C10.943 4.57489 10.474 3.44589 10.473 2.24489C10.473 2.02889 10.488 1.81489 10.518 1.60289Z" fill="black"/>
<path d="M7.47296 13.4879C5.81896 13.4879 4.47296 12.1419 4.47296 10.4879C4.47296 8.83391 5.81896 7.48792 7.47296 7.48792C9.12696 7.48792 10.473 8.83391 10.473 10.4879C10.473 12.1419 9.12696 13.4879 7.47296 13.4879ZM7.47296 8.98792C6.64596 8.98792 5.97296 9.66091 5.97296 10.4879C5.97296 11.3149 6.64596 11.9879 7.47296 11.9879C8.29996 11.9879 8.97296 11.3149 8.97296 10.4879C8.97296 9.66091 8.29996 8.98792 7.47296 8.98792Z" fill="black"/>
<path d="M14.223 19.4879C12.982 19.4879 11.973 18.4789 11.973 17.2379C11.973 15.9969 12.982 14.9879 14.223 14.9879C15.464 14.9879 16.473 15.9969 16.473 17.2379C16.473 18.4789 15.464 19.4879 14.223 19.4879ZM14.223 16.4879C13.809 16.4879 13.473 16.8239 13.473 17.2379C13.473 17.6519 13.809 17.9879 14.223 17.9879C14.637 17.9879 14.973 17.6519 14.973 17.2379C14.973 16.8239 14.637 16.4879 14.223 16.4879Z" fill="black"/>
<path d="M7.09998 17.9879C7.7213 17.9879 8.22498 17.4842 8.22498 16.8629C8.22498 16.2416 7.7213 15.7379 7.09998 15.7379C6.47866 15.7379 5.97498 16.2416 5.97498 16.8629C5.97498 17.4842 6.47866 17.9879 7.09998 17.9879Z" fill="black"/>
<path d="M13.096 11.2389C12.86 11.2389 12.633 11.1659 12.44 11.0269C12.196 10.8509 12.035 10.5909 11.987 10.2939C11.938 9.99889 12.008 9.70189 12.183 9.45789C12.358 9.21389 12.617 9.05289 12.913 9.00389C12.977 8.99389 13.038 8.98889 13.098 8.98889C13.652 8.98889 14.119 9.38589 14.208 9.93389C14.256 10.2299 14.186 10.5279 14.011 10.7719C13.835 11.0159 13.575 11.1769 13.278 11.2249C13.218 11.2339 13.157 11.2389 13.096 11.2389Z" fill="black"/>
<path d="M19.097 14.2379C18.861 14.2379 18.634 14.1649 18.441 14.0259C18.197 13.8499 18.036 13.5899 17.988 13.2929C17.889 12.6819 18.305 12.1029 18.917 12.0029C18.98 11.9929 19.04 11.9879 19.099 11.9879C19.653 11.9879 20.12 12.3849 20.209 12.9319C20.309 13.5439 19.892 14.1229 19.28 14.2229C19.218 14.2339 19.157 14.2379 19.097 14.2379Z" fill="black"/>
</g>
<defs>
<clipPath id="clip0">
<rect width="24" height="24" fill="white"/>
</clipPath>
</defs>
</svg>

<svg width="24" height="24" fill="none" xmlns="http://www.w3.org/2000/svg"><g clip-path="url(#clip0)" fill="#000"><path d="M11.977 23.977A11.952 11.952 0 01.006 12.475 11.91 11.91 0 013.17 3.863 11.912 11.912 0 0111.497.01l.038-.001c.242 0 .47.122.61.325a.746.746 0 01.071.72 2.971 2.971 0 00-.244 1.188c.001.8.313 1.553.88 2.118a2.978 2.978 0 002.117.876 2.978 2.978 0 001.798-.614.757.757 0 01.788-.078.746.746 0 01.419.673v.025a3 3 0 002.996 2.994c.473-.002.946-.12 1.365-.342a.752.752 0 011.065.436c.329 1.026.518 2.094.562 3.172.13 3.2-.994 6.258-3.165 8.612a11.91 11.91 0 01-8.82 3.862zM10.518 1.603A10.455 10.455 0 004.273 4.88a10.424 10.424 0 00-2.769 7.535 10.456 10.456 0 0010.905 10.053 10.423 10.423 0 007.286-3.37 10.419 10.419 0 002.768-7.535 10.524 10.524 0 00-.275-2c-.394.114-.8.173-1.211.175h-.005c-2.032 0-3.818-1.4-4.341-3.325a4.476 4.476 0 01-4.838-.989 4.47 4.47 0 01-1.275-3.821z"/><path d="M7.473 13.488c-1.654 0-3-1.346-3-3s1.346-3 3-3 3 1.346 3 3-1.346 3-3 3zm0-4.5c-.827 0-1.5.673-1.5 1.5s.673 1.5 1.5 1.5 1.5-.673 1.5-1.5-.673-1.5-1.5-1.5zM14.223 19.488a2.252 2.252 0 01-2.25-2.25 2.252 2.252 0 012.25-2.25 2.252 2.252 0 012.25 2.25 2.252 2.252 0 01-2.25 2.25zm0-3a.75.75 0 100 1.5.75.75 0 000-1.5zM7.1 17.988a1.125 1.125 0 100-2.25 1.125 1.125 0 000 2.25zM13.096 11.239c-.236 0-.463-.073-.656-.212a1.118 1.118 0 01-.453-.733 1.113 1.113 0 01.196-.836 1.116 1.116 0 01.915-.47 1.12 1.12 0 011.11.946 1.122 1.122 0 01-1.112 1.305zM19.097 14.238c-.236 0-.463-.073-.656-.212a1.126 1.126 0 111.768-1.094 1.126 1.126 0 01-1.112 1.306z"/></g><defs><clipPath id="clip0"><path fill="#fff" d="M0 0h24v24H0z"/></clipPath></defs></svg>
